X: 3
T: Reel \`a Gilbert
M: C|
L: 1/8
R: reel
K: A
|:\
"A"EAcA "D"BAFA | "A"EAcA "D"BAFA | "A"e3f "A#dim"ecBA | "Bm7"BAcA "E7"BAFA |
"A"EAcA "D"BAFA | "A"EAcA "D"BAFA | "A"e2ef "Bm" ecBA |1 "E7"BABc "A"A2AF :|[2 "E7"BABc B2cd ||
|:\
"A"e3f eca2 | "D"f3a f2ed | "A"cdef "A#dim"ecAB | "Bm7"BABc "E7"BAF2 |
"A"e2ef eca2 | "D"f2fg f2ed | "A"cdef "Bm7"ecAB |1 "E7"BABc B2cd :|[2 "E7"BABc "A"A2AF |]
%%text Ending: Stop on that A quarter-note.

